X:1
T:Pour parvenir a la fin
T:Pour parvenir a la fin
T:Pierre de Manchicourt
C:Pierre de Manchicourt
%%score [ 1 [ 2 3 ] 4 ]
L:1/8
Q:1/4=80
M:2/2
K:F
V:1 treble nm="Superius" snm="S"
V:2 treble-8 nm="Tenor 1" snm="T 1"
V:3 treble-8 nm="Tenor 2" snm="T 2"
V:4 bass nm="Bassus" snm="B"
V:1
 z4 F4- | F4 F3 G | A2 G4 FE | F8 | z4 z2 F2 | c2 c2 B2 A2 | G2 A3 G E2 | F4 E4 | z2 c2 c2 c2 | %9
w: Pour|_ par- *|* * ve- *|nir|à|la fin de- si-|ré- * * *|* e,|on peult trou-|
w: L'hon-|* neur _|_ _ sur- *|tout,|aus-|si la re- nom-|mé- * * *|* e,|il fault gar-|
 A2 A2 F2 A2 | G2 F2 EF GA | G2 F4 E2 |1 F4 z4 ::2 F8 || z2 F2 B4- | B2 A2 G4 | F2 A4 GF | %17
w: ver quel- que ho-|nes- te moi- * * *||en,|1.(bien.)|Tou- chant|_ mon cueur,|_ _ _ _|
w: der de ce qu'on|ay- me bien, _ _ _|_ _ _||2.se,||||
 E2 E2 F2 E2 | D2 C2 D4 | C2 c2 d2 c2 | B2 A3 G/F/ G2 | A2 A2 B4 | B4 A4- | A4 z2 A2 | %24
w: * il se- ra|tous- jours _|tien, il se- ra|tous- jours _ _ _|tien, en te|pri- ant|_ d'ex-|
w: |||||||
 A2 F2 G2 A2- | A2 B4 A2 | G4 E4 | z2 G2 A2 B2 | c2 F2 A2 c2 | B2 A4 G2 | F4 E2 G2- | GF F4 E2 | %32
w: cu- ser ma sim-|* ples- *|* se,|ser- van- te|suis à ta haul-|te no- *||* * bles- *|
w: ||||||||
 F4 z4 | z2 G2 A2 B2 | c2 F2 A2 c2 | B2 A4 G2 | F4 E2 G2- |1 GF F4 E2 :|2 GF F4 E2 || F8 |] %40
w: se,|ser- van- te|suis à ta haul-|te no- bles-|||(bles)- * * *|se.|
w: ||||||||
V:2
 c8 | d3 c de f2- | f2 e2 d4- | d8 | z2 c2 f2 f2 | e2 e2 d2 f2 | e2 dc d2 c2- | c2 B2 c2 e2 | %8
w: Pour|par- * * * *|* ve- nir|_|à la fin|de- si- ré- *||* * e, on|
w: L'hon-|neur _ _ _ _|_ sur- tout,|_|aus- si la|re- nom- mé- *||* * e, il|
 e2 e2 c4 | z2 f2 f2 f2 | d2 d2 c2 B2 |"^b" e2 d2 c4 |1 c4 z4 ::2 z2 c2 d2 c2 || d4 B2 G2 | %15
w: peult trou- ver,-|on peult trou-|ver quel- que ho-|nes- te moi-|en,|Tou- chant mon|cueur, tou- chant|
w: fault gar- der|de ce qu'on|ay- me bien, _|_ _ _||||
 c2 f4 e2 | d2 c4 B2 | c2 c2 d2 c2 | B2 A4 G2 | A2 e2 d2 e2 | f4 d2 e2 | f2 f2 f4 | g4 f2 ed | %23
w: mon cueur,- tou-|chant mon- *|cueur, il se- ra|tous- * jours|tien, il se- ra|tous- * jours|tien, en te|pri- ant _ _|
w: ||||||||
 e2 e2 e2 c2 | f4 e2 c2 | f2 ed e2 f2 | d2 G4 A2 | B2 c3 A d2 | c4 z2 c2 | d2 e2 f2 e2 | %30
w: _ d'ex- cu- ser|ma sim- ples-||se, ser- van-|* * * te|suis, se-|van- te suis à|
w: |||||||
 d2 B2 c2 B2 |"^b" e2 d2 c2 G2 | A2 B2 c2 e2 | f2 ed c2 d2 | c4 z2 c2 | d2 e2 f2 e2 | %36
w: ta haul- te no-|bles- * * *|se, ser- van- *|* * * * te|suis à|ta haul- te no-|
w: ||||||
 d2 B2 c2 B2 |1"^b" e2 d2 c4 :|2"^b" e2 d2 c4 || A8 |] %40
w: bles- * * *|* * se|(bles)- * *|se.|
w: ||||
V:3
 A8 | B3 A Bc d2 | c4 B2 AG | A2 F2 B2 B2 | A2 A4 GF | A2 G2 z2 F2 | c3 B A2 G2- | G2 F2 G2 c2 | %8
w: Pour|par- * * * *|* nir _ _|_ à la fin|de- si- ré- *|* e, à|la fin de- si|_ ré- e, on|
w: L'hon-|neur _ _ _ _|sur- tout, _ _|_ aus- si la|re- nom- mé- *|* e, aus-|si la re- nom-|* mé- e, il|
 c2 c2 AG AB | c2 A2 B2 A2 | B3 A G4 | B2 A2 G4 |1 F4 z4 ::2 z2 F2 B2 A2 || G2 F4 E2 | F2 F2 c3 B | %16
w: peult trou- ver, _ _ _|_ quel- que ho-|nest- * *|* te moi-|en,|Tou- chant mon|cueur, tou- chant|mon cueur, _ _|
w: fault gar- der _ _ _|_ de ce qu'on|ay- * me|bien, _ _|_||||
 A4 F4 | G2 G2 A2 G2 | F2 E4 D2 | E3 A B2 c2 | d3 c B4 | A2 c2 d4 | d6 cB | c2 c2 cB AG | %24
w: _ il|se- ra tous- jours|tien, il se-|ra _ _ tous-|jours _ _|tien, en te|pri _ _|ant d'ex- cu- * * *|
w: ||||||||
 A2 B4 A2 | d3 c B2 c2- | c2 B2 c4 | z4 z2 F2 | A3 B c2 F2 | B2 c2 B4 | A2 GF A2 G2 | B2 A2 G4 | %32
w: ser ma sim-|ples- * * *|* * se,|ser-|van- te suis, ser-|van- te suis|à ta _ haul- te|no- bles- se,|
w: ||||||||
 z2 F2 G2 A2 | B4 A2 F2 | A3 B c2 F2 | B2 c2 B4 | A2 GF A2 G2 |1 B2 A2 G4 :|2 B2 A2 G4 || F8 |] %40
w: ser- van- *|te suis, ser-|van- * * te|suis à ta|haul- * * te no-|bles- * se,|(bles)- * *|se.|
w: ||||||||
V:4
 F,8 | B,,8 | C,4 D,4- | D,4 z2 B,,2 | F,3 E, D,2 D,2 | C,D, E,F, G,2 D,2 | E,2 F,3 E, C,2 | %7
w: Pour|par-|ve- nir|_ à|la fin de- si-|ré- * * * e, à|la fin de- si-|
w: L'hon-|neur|sur- tout,|_ aus-|si la re- nom-|mé- * * * e, aus-|si la re- nom-|
 D,4 C,4- | C,4 z2 F,2 | F,2 F,2 D,2 D,2 |"^b" B,,2 B,,2 C,2 E,2- | E,2 F,2 C,4 |1 F,,4 z4 ::2 %13
w: ré- e,|_ on|peult trou- ver quel-|que hon- nes- *|* te moi-|en,|
w: mé- e,|_ il|fault gar- der de|ce qu'on ay- *|* * me|_|
 F,,4 z2 F,,2 || B,,3 A,, G,,4 | F,,4 z2 C,2 | F,3 E, D,4 | C,2 C,2 F,2 C,2 | D,2 A,,2 B,,4 | %19
w: 1.bien, tou-|chant _ mon|cueur, tou-|chant _ mon|cueur, il se- ra|tous- * jours|
w: 2.se, *||||||
 A,,4 z4 | z2 D,2 G,2 G,2 | F,2 F,2 B,4 | G,4 A,4- | A,4 z2 F,2 | F,2 D,2 E,2 F,2 | D,2 G,4 F,2 | %26
w: tien,|en te pri-|ant, en te|pri- ant|_ d'ex-|cu- ser ma sim-|ples- * *|
w: |||||||
 G,4 C,2 C,2 | D,2 E,2 F,2 B,,2 | F,6 A,2 | G,2 C,2 D,2 E,2 | F,2 E,D, C,2 _E,2- | %31
w: * se, ser-|van- * * te|suis, à|ta haul- te no-|bles _ _ _ _|
w: |||||
 E,2 F,2 C,2 E,2 | D,4 C,2 C,2 | D,2 E,2 F,2 B,,2 | F,6 A,2 | G,2 C,2 D,2 E,2 | %36
w: _ _ _ _|* se, ser-|van- te suis à|ta haul-|te no- bles- *|
w: |||||
 F,2 E,D, C,2 E,2- |1 E,2 F,2 C,4 :|2 _E,2 F,2 C,4 || F,,8 |] %40
w: |* * se,|(bles)- * *|se.|
w: ||||

